svg/u1f612.svg

<svg viewBox="0 0 128 128" xmlns="http://www.w3.org/2000/svg">
  <g id="gold">
    <radialGradient id="face_1_" cx="63.6" cy="1104.9" gradientTransform="matrix(1 0 0 1 0 -1042)" gradientUnits="userSpaceOnUse" r="56.9597">
      <stop offset="0.5" stop-color="#FDE030"/>
      <stop offset="0.92" stop-color="#F7C02B"/>
      <stop offset="1" stop-color="#F4A223"/>
    </radialGradient>
    <path id="face" d="M63.6,118.8c-27.9,0-58-17.5-58-55.9S35.7,7,63.6,7c15.5,0,29.8,5.1,40.4,14.4 c11.5,10.2,17.6,24.6,17.6,41.5s-6.1,31.2-17.6,41.4C93.4,113.6,79,118.8,63.6,118.8z" fill="url(#face_1_)"/>
    <path d="M111.49,29.67c5.33,8.6,8.11,18.84,8.11,30.23c0,16.9-6.1,31.2-17.6,41.4 c-10.6,9.3-25,14.5-40.4,14.5c-18.06,0-37-7.35-48.18-22.94c10.76,17.66,31,25.94,50.18,25.94c15.4,0,29.8-5.2,40.4-14.5 c11.5-10.2,17.6-24.5,17.6-41.4C121.6,50.16,118.13,38.84,111.49,29.67z" fill="#EB8F00"/>
  </g>
  <g id="facial_expressions">
    <g id="unamused-face">
      <path id="mouth" d="M63.89,82c-10.49,0-18,6.29-20.23,9.78c-0.85,1.13-1.02,2.62-0.46,3.91 c0.43,0.82,1.28,1.33,2.2,1.31c0.34-0.01,0.68-0.06,1-0.16c5.28-1.69,9.9-4.14,17.49-4.14s12.21,2.45,17.49,4.14 c0.32,0.11,0.66,0.16,1,0.16c0.92,0.02,1.77-0.49,2.2-1.31c0.56-1.29,0.39-2.78-0.46-3.91C81.86,88.29,74.37,82,63.89,82z" fill="#422B0D"/>
      <g id="eyes">
        <g id="peepers">
          <path d="M48.16,55.81c-6.05-1.58-12.44-1.34-18.36,0.69c-1.06,0.41-1.59,1.59-1.18,2.65 c0.38,0.99,1.44,1.52,2.46,1.24c2.37-0.46,4.79-0.59,7.2-0.4c0,0.06,0,0.39,0,0.39c0,4.89,3.17,7.85,6.67,7.85 c1.79-0.02,3.5-0.76,4.74-2.06c2.08-2.21,2.51-5.51,1.05-8.17C50.19,56.97,49.27,56.18,48.16,55.81z" fill="#422B0D"/>
          <path d="M96,55.81c-6.05-1.58-12.44-1.34-18.36,0.69c-1.07,0.38-1.64,1.55-1.26,2.62s1.55,1.64,2.62,1.26 l0,0c2.37-0.46,4.79-0.59,7.19-0.4c0,0.06,0,0.39,0,0.39c0,4.89,3.18,7.85,6.67,7.85c1.8-0.02,3.51-0.76,4.75-2.06 c2.05-2.21,2.45-5.49,1-8.13C98.06,56.99,97.12,56.19,96,55.81z" fill="#422B0D"/>
        </g>
        <g id="eyebrows">
          <path d="M87.68,44c-1.01,0.02-1.84-0.79-1.86-1.8c-0.02-1.01,0.79-1.84,1.8-1.86 c1.94-0.21,3.91-0.09,5.81,0.35c5.18,1.05,9.78,4.02,12.86,8.31c1.38,2.08-1.32,3.8-2.94,2.25C99.12,47.09,93.59,44.53,87.68,44 L87.68,44" fill="#422B0D"/>
          <path d="M37.88,44c1.01,0.02,1.84-0.79,1.86-1.8s-0.79-1.84-1.8-1.86c-1.94-0.21-3.91-0.09-5.81,0.35 c-5.18,1.05-9.78,4.02-12.86,8.31c-1.39,2.08,1.32,3.8,2.94,2.25C26.44,47.09,31.97,44.53,37.88,44L37.88,44" fill="#422B0D"/>
        </g>
      </g>
    </g>
    <g id="peepers-2">
      <path d="M45.06,59.18L45.06,59.18c1.42-0.68,3.13-0.08,3.82,1.34c0.53,1.11,0.29,2.44-0.6,3.3l0,0 c-1.42,0.68-3.13,0.08-3.82-1.34C43.93,61.37,44.17,60.04,45.06,59.18z" fill="#896024"/>
    </g>
    <g id="peepers-3">
      <path d="M93.06,59.18L93.06,59.18c1.43-0.67,3.13-0.06,3.81,1.37c0.52,1.11,0.28,2.42-0.6,3.27l0,0 c-1.43,0.67-3.13,0.06-3.81-1.37C91.94,61.35,92.18,60.03,93.06,59.18z" fill="#896024"/>
    </g>
  </g>
</svg>

<svg viewBox="0 0 128 128" xmlns="http://www.w3.org/2000/svg">
  <defs>
    <radialGradient id="face_1_" cx="63.6" cy="62.9" gradientUnits="userSpaceOnUse" r="56.9597">
      <stop offset="0.5" stop-color="#FDE030"/>
      <stop offset="0.92" stop-color="#F7C02B"/>
      <stop offset="1" stop-color="#F4A223"/>
    </radialGradient>
  </defs>
  <path id="face" d="M63.6,118.8 C35.7,118.8 5.6,101.3 5.6,62.9 C5.6,24.5 35.7,7 63.6,7 C79.1,7 93.4,12.1 104,21.4 C115.5,31.6 121.6,46 121.6,62.9 C121.6,79.8 115.5,94.1 104,104.3 C93.4,113.6 79,118.8 63.6,118.8 Z" fill="url(#face_1_)"/>
  <path d="M111.49,29.67 C116.82,38.27 119.6,48.51 119.6,59.9 C119.6,76.8 113.5,91.1 102,101.3 C91.4,110.6 77,115.8 61.6,115.8 C43.54,115.8 24.6,108.45 13.42,92.86 C24.18,110.52 44.42,118.8 63.6,118.8 C79,118.8 93.4,113.6 104,104.3 C115.5,94.1 121.6,79.8 121.6,62.9 C121.6,50.16 118.13,38.84 111.49,29.67 Z" fill="#EB8F00"/>
  <path id="mouth" d="M63.89,82 C53.4,82 45.89,88.29 43.66,91.78 C42.81,92.91 42.64,94.4 43.2,95.69 C43.63,96.51 44.48,97.02 45.4,97 C45.74,96.99 46.08,96.94 46.4,96.84 C51.68,95.15 56.3,92.7 63.89,92.7 C71.48,92.7 76.1,95.15 81.38,96.84 C81.7,96.95 82.04,97 82.38,97 C83.3,97.02 84.15,96.51 84.58,95.69 C85.14,94.4 84.97,92.91 84.12,91.78 C81.86,88.29 74.37,82 63.89,82 Z" fill="#422B0D"/>
  <path d="M48.16,55.81 C42.11,54.23 35.72,54.47 29.8,56.5 C28.74,56.91 28.21,58.09 28.62,59.15 C29,60.14 30.06,60.67 31.08,60.39 C33.45,59.93 35.87,59.8 38.28,59.99 C38.28,60.05 38.28,60.38 38.28,60.38 C38.28,65.27 41.45,68.23 44.95,68.23 C46.74,68.21 48.45,67.47 49.69,66.17 C51.77,63.96 52.2,60.66 50.74,58 C50.19,56.97 49.27,56.18 48.16,55.81 Z" fill="#422B0D"/>
  <path d="M96,55.81 C89.95,54.23 83.56,54.47 77.64,56.5 C76.57,56.88 76,58.05 76.38,59.12 C76.76,60.19 77.93,60.76 79,60.38 L79,60.38 C81.37,59.92 83.79,59.79 86.19,59.98 C86.19,60.04 86.19,60.37 86.19,60.37 C86.19,65.26 89.37,68.22 92.86,68.22 C94.66,68.2 96.37,67.46 97.61,66.16 C99.66,63.95 100.06,60.67 98.61,58.03 C98.06,56.99 97.12,56.19 96,55.81 Z" fill="#422B0D"/>
  <path d="M87.68,44 C86.67,44.02 85.84,43.21 85.82,42.2 C85.8,41.19 86.61,40.36 87.62,40.34 C89.56,40.13 91.53,40.25 93.43,40.69 C98.61,41.74 103.21,44.71 106.29,49 C107.67,51.08 104.97,52.8 103.35,51.25 C99.12,47.09 93.59,44.53 87.68,44 L87.68,44" fill="#422B0D"/>
  <path d="M37.88,44 C38.89,44.02 39.72,43.21 39.74,42.2 C39.76,41.19 38.95,40.36 37.94,40.34 C36,40.13 34.03,40.25 32.13,40.69 C26.95,41.74 22.35,44.71 19.27,49 C17.88,51.08 20.59,52.8 22.21,51.25 C26.44,47.09 31.97,44.53 37.88,44 L37.88,44" fill="#422B0D"/>
  <path d="M45.06,59.18 L45.06,59.18 C46.48,58.5 48.19,59.1 48.88,60.52 C49.41,61.63 49.17,62.96 48.28,63.82 L48.28,63.82 C46.86,64.5 45.15,63.9 44.46,62.48 C43.93,61.37 44.17,60.04 45.06,59.18 Z" fill="#896024"/>
  <path d="M93.06,59.18 L93.06,59.18 C94.49,58.51 96.19,59.12 96.87,60.55 C97.39,61.66 97.15,62.97 96.27,63.82 L96.27,63.82 C94.84,64.49 93.14,63.88 92.46,62.45 C91.94,61.35 92.18,60.03 93.06,59.18 Z" fill="#896024"/>
</svg>
